resources/svg/folders-o.svg

<svg width="15" height="15" viewBox="0 0 15 15" fill="none" xmlns="http://www.w3.org/2000/svg">
<path d="M3.5 8.5V1.5C3.5 0.947715 3.94772 0.5 4.5 0.5H7.5L9.5 2.5H13.5C14.0523 2.5 14.5 2.94772 14.5 3.5V8.5C14.5 9.05228 14.0523 9.5 13.5 9.5H4.5M3.5 8.5C3.5 9.05229 3.94772 9.5 4.5 9.5M3.5 8.5V5.5H1.5C0.947715 5.5 0.5 5.94772 0.5 6.5V13.5C0.5 14.0523 0.947715 14.5 1.5 14.5H10.5C11.0523 14.5 11.5 14.0523 11.5 13.5V9.5H4.5" stroke="black"/>
</svg>

<svg viewBox="0 0 15 15" fill="none" xmlns="http://www.w3.org/2000/svg" fill="currentColor"><path d="M3.5 8.5v-7a1 1 0 011-1h3l2 2h4a1 1 0 011 1v5a1 1 0 01-1 1h-9m-1-1a1 1 0 001 1m-1-1v-3h-2a1 1 0 00-1 1v7a1 1 0 001 1h9a1 1 0 001-1v-4h-7" stroke="currentColor"/></svg>
